img/logo.svg

<svg width="139" height="20" viewBox="0 0 139 20" fill="none" xmlns="http://www.w3.org/2000/svg">
<g id="logo">
<path id="easybank" fill-rule="evenodd" clip-rule="evenodd" d="M91.2953 15.8461C94.7958 15.8461 97.2684 13.3312 97.2684 9.79811C97.2684 6.26505 94.7958 3.75032 91.2953 3.75032C90.244 3.75053 89.284 4.03158 88.4703 4.53411V0H84.5991V15.4737H87.4968L87.8661 14.6297C88.7897 15.4013 89.9686 15.8461 91.2953 15.8461ZM64.6905 15.8461C67.7113 15.8463 69.7164 14.2916 69.7164 11.9158C69.7164 9.08169 67.4088 8.67295 65.6246 8.3569L65.5328 8.34063L65.5103 8.33662C64.4408 8.14588 63.5833 7.99298 63.5833 7.35053C63.5833 6.82358 64.005 6.51284 64.6328 6.51284C65.3423 6.51284 65.8303 6.85032 65.8303 7.57621H69.4972C69.4526 5.27263 67.5764 3.73263 64.6814 3.73263C61.7686 3.73263 59.8267 5.20379 59.8267 7.48253C59.8267 10.2398 62.1635 10.7718 63.9263 11.0575C65.0185 11.2381 65.8791 11.4251 65.8791 12.0808C65.8791 12.6684 65.3362 12.9606 64.7633 12.9606C64.0208 12.9606 63.4421 12.5779 63.4421 11.7465H59.673C59.7088 14.2097 61.592 15.8461 64.6905 15.8461ZM43.7059 11.6309C42.9059 14.2255 40.6061 15.8465 37.7539 15.8465C34.2067 15.8465 31.5789 13.2539 31.5789 9.78084C31.5789 6.29558 34.1857 3.73284 37.7539 3.73284C41.4183 3.73284 43.9556 6.34716 43.9553 9.68211C43.9553 10.0246 43.9254 10.3672 43.8745 10.7187H35.433C35.6892 12.0227 36.5174 12.6971 37.7539 12.6971C38.6686 12.6971 39.4328 12.2964 39.8092 11.6309H43.7059ZM35.5021 8.55032H40.0979C39.7543 7.4141 38.9353 6.80105 37.7537 6.80105C36.6124 6.80105 35.8189 7.42105 35.5021 8.55032ZM51.044 15.8463C52.3644 15.8463 53.5433 15.4118 54.4743 14.6577L54.8097 15.4617H57.8368V4.09326L54.9183 4.09305L54.5177 4.97221C53.5789 4.19768 52.3829 3.75053 51.044 3.75053C47.5678 3.75053 45.0829 6.25642 45.0829 9.77726C45.0829 13.3103 47.5678 15.8463 51.044 15.8463ZM49.0227 9.78632C49.0227 11.2709 50.1008 12.3792 51.5676 12.3792C53.0343 12.3792 54.1124 11.2709 54.1124 9.78632C54.1124 8.31074 53.0343 7.20253 51.5676 7.20253C50.092 7.20253 49.0227 8.31074 49.0227 9.78632ZM78.6675 14.9678C77.1351 18.4472 75.7265 19.704 72.7911 19.704H71.4503V16.3394H72.5271C74.0252 16.3394 74.477 15.9493 75.0075 14.5345L70.3097 4.10526H74.5648L76.9774 10.3678L79.2257 4.10526H83.4324L78.6675 14.9678ZM88.2267 9.79811C88.2267 11.2705 89.3048 12.3787 90.7715 12.3787C92.2292 12.3787 93.3164 11.2705 93.3164 9.79811C93.3164 8.31347 92.2383 7.20526 90.7715 7.20526C89.3048 7.20526 88.2267 8.31347 88.2267 9.79811ZM104.37 15.8463C105.691 15.8463 106.87 15.4118 107.801 14.6577L108.136 15.4617H111.163V4.09326L108.245 4.09305L107.844 4.97221C106.905 4.19768 105.709 3.75053 104.37 3.75053C100.894 3.75053 98.4092 6.25642 98.4092 9.77726C98.4092 13.3103 100.894 15.8463 104.37 15.8463ZM102.349 9.78632C102.349 11.2709 103.427 12.3792 104.894 12.3792C106.361 12.3792 107.439 11.2709 107.439 9.78632C107.439 8.31074 106.361 7.20253 104.894 7.20253C103.418 7.20253 102.349 8.31074 102.349 9.78632ZM117.546 15.4737V9.40295C117.546 7.956 118.249 7.10316 119.47 7.10316C120.456 7.10316 120.953 7.75958 120.953 9.08274V15.4737H124.868V8.54169C124.868 5.64526 123.134 3.76905 120.494 3.76905C119.024 3.76905 117.762 4.33432 116.916 5.27747L116.378 4.10526H113.631V15.4737H117.546ZM131.295 10.6661V15.4737H127.379V0H131.295V8.55895L134.003 4.10526H138.4L134.857 9.52358L138.759 15.4737H134.143L131.295 10.6661Z" fill="#2D314D"/>
<g id="Group 8">
<path id="Path 5" fill-rule="evenodd" clip-rule="evenodd" d="M10.8025 0L0 19.704H5.98608L16.7885 0H10.8025Z" fill="url(#paint0_linear)"/>
<path id="Path 5 Copy" opacity="0.5" fill-rule="evenodd" clip-rule="evenodd" d="M18.1709 0L7.36841 19.704H13.3545L24.157 0H18.1709Z" fill="url(#paint1_linear)"/>
<path id="Path 5 Copy 2" opacity="0.15" fill-rule="evenodd" clip-rule="evenodd" d="M25.5393 0L14.7368 19.704H20.7229L31.5254 0H25.5393Z" fill="url(#paint2_linear)"/>
</g>
</g>
<defs>
<linearGradient id="paint0_linear" x1="5.13267" y1="-7.42211" x2="-10.1946" y2="9.91277" gradientUnits="userSpaceOnUse">
<stop stop-color="#33D35E"/>
<stop offset="1" stop-color="#2AB6D9"/>
</linearGradient>
<linearGradient id="paint1_linear" x1="12.5011" y1="-7.42211" x2="-2.82619" y2="9.91277" gradientUnits="userSpaceOnUse">
<stop stop-color="#33D35E"/>
<stop offset="1" stop-color="#2AB6D9"/>
</linearGradient>
<linearGradient id="paint2_linear" x1="19.8695" y1="-7.42211" x2="4.54222" y2="9.91277" gradientUnits="userSpaceOnUse">
<stop stop-color="#33D35E"/>
<stop offset="1" stop-color="#2AB6D9"/>
</linearGradient>
</defs>
</svg>

<svg width="139" height="20" fill="none" xmlns="http://www.w3.org/2000/svg"><g fill-rule="evenodd" clip-rule="evenodd"><path d="M91.295 15.846c3.5 0 5.973-2.515 5.973-6.048S94.796 3.75 91.295 3.75a5.332 5.332 0 0 0-2.825.784V0H84.6v15.474h2.897l.37-.844c.923.771 2.102 1.216 3.428 1.216zm-26.605 0c3.021 0 5.026-1.554 5.026-3.93 0-2.834-2.307-3.243-4.091-3.56l-.092-.015-.023-.004c-1.07-.191-1.927-.344-1.927-.986 0-.527.422-.838 1.05-.838.71 0 1.197.337 1.197 1.063h3.667c-.044-2.303-1.92-3.843-4.816-3.843-2.912 0-4.854 1.47-4.854 3.75 0 2.757 2.337 3.289 4.1 3.574 1.092.181 1.952.368 1.952 1.024 0 .587-.543.88-1.116.88-.742 0-1.32-.383-1.32-1.215h-3.77c.036 2.464 1.919 4.1 5.017 4.1zm-20.984-4.215c-.8 2.595-3.1 4.216-5.952 4.216-3.547 0-6.175-2.593-6.175-6.066 0-3.485 2.607-6.048 6.175-6.048 3.664 0 6.202 2.614 6.201 5.95 0 .342-.03.684-.08 1.036h-8.442c.256 1.304 1.084 1.978 2.32 1.978.916 0 1.68-.4 2.056-1.066h3.897zm-8.204-3.08h4.596c-.344-1.137-1.163-1.75-2.344-1.75-1.142 0-1.935.62-2.252 1.75zm15.542 7.295c1.32 0 2.5-.434 3.43-1.188l.336.804h3.027V4.093h-2.919l-.4.88c-.94-.775-2.135-1.222-3.474-1.222-3.476 0-5.961 2.505-5.961 6.026 0 3.533 2.485 6.07 5.961 6.07zm-2.021-6.06c0 1.485 1.078 2.593 2.545 2.593 1.466 0 2.544-1.108 2.544-2.593 0-1.475-1.078-2.583-2.544-2.583-1.476 0-2.545 1.108-2.545 2.583zm29.645 5.182c-1.533 3.48-2.942 4.736-5.877 4.736h-1.34v-3.365h1.076c1.498 0 1.95-.39 2.48-1.804L70.31 4.104h4.255l2.412 6.263 2.249-6.263h4.206l-4.764 10.863zm9.559-5.17c0 1.473 1.078 2.58 2.544 2.58 1.458 0 2.545-1.107 2.545-2.58 0-1.485-1.078-2.593-2.544-2.593-1.467 0-2.545 1.108-2.545 2.593zm16.143 6.048c1.321 0 2.5-.434 3.431-1.188l.335.804h3.027V4.093h-2.918l-.401.88c-.939-.775-2.135-1.222-3.474-1.222-3.476 0-5.96 2.505-5.96 6.026 0 3.533 2.484 6.07 5.96 6.07zm-2.021-6.06c0 1.485 1.078 2.593 2.545 2.593 1.467 0 2.545-1.108 2.545-2.593 0-1.475-1.078-2.583-2.545-2.583-1.476 0-2.545 1.108-2.545 2.583zm15.197 5.688V9.403c0-1.447.703-2.3 1.924-2.3.986 0 1.483.657 1.483 1.98v6.39h3.915V8.543c0-2.897-1.734-4.773-4.374-4.773-1.47 0-2.732.565-3.578 1.508l-.538-1.172h-2.747v11.369h3.915zm13.749-4.808v4.808h-3.916V0h3.916v8.559l2.708-4.454h4.397l-3.543 5.419 3.902 5.95h-4.616l-2.848-4.808z" fill="#2D314D"/><path d="M10.803 0L0 19.704h5.986L16.788 0h-5.986z" fill="url(#paint0_linear)"/><path opacity=".5" d="M18.17 0L7.369 19.704h5.986L24.157 0h-5.986z" fill="url(#paint1_linear)"/><path opacity=".15" d="M25.54 0L14.736 19.704h5.986L31.525 0H25.54z" fill="url(#paint2_linear)"/></g><defs><linearGradient id="paint0_linear" x1="5.133" y1="-7.422" x2="-10.195" y2="9.913" gradientUnits="userSpaceOnUse"><stop stop-color="#33D35E"/><stop offset="1" stop-color="#2AB6D9"/></linearGradient><linearGradient id="paint1_linear" x1="12.501" y1="-7.422" x2="-2.826" y2="9.913" gradientUnits="userSpaceOnUse"><stop stop-color="#33D35E"/><stop offset="1" stop-color="#2AB6D9"/></linearGradient><linearGradient id="paint2_linear" x1="19.869" y1="-7.422" x2="4.542" y2="9.913" gradientUnits="userSpaceOnUse"><stop stop-color="#33D35E"/><stop offset="1" stop-color="#2AB6D9"/></linearGradient></defs></svg>
